icons/src/tablecells.svg

<?xml version="1.0" encoding="UTF-8"?>
<!--Generator: Apple Native CoreSVG 341-->
<!DOCTYPE svg
PUBLIC "-//W3C//DTD SVG 1.1//EN"
       "http://www.w3.org/Graphics/SVG/1.1/DTD/svg11.dtd">
<svg version="1.1" xmlns="http://www.w3.org/2000/svg" xmlns:xlink="http://www.w3.org/1999/xlink" viewBox="0 0 23.3887 17.9785">
 <g>
  <rect height="17.9785" opacity="0" width="23.3887" x="0" y="0"/>
  <path d="M0.449219 7.04102L22.6855 7.04102L22.6855 5.46875L0.449219 5.46875ZM0.449219 12.5195L22.6855 12.5195L22.6855 10.9473L0.449219 10.9473ZM10.7324 17.5391L12.3047 17.5391L12.3047 0.449219L10.7324 0.449219ZM3.06641 17.9785L19.9609 17.9785C22.0117 17.9785 23.0273 16.9727 23.0273 14.9609L23.0273 3.02734C23.0273 1.01562 22.0117 0 19.9609 0L3.06641 0C1.02539 0 0 1.01562 0 3.02734L0 14.9609C0 16.9727 1.02539 17.9785 3.06641 17.9785ZM3.08594 16.4062C2.10938 16.4062 1.57227 15.8887 1.57227 14.873L1.57227 3.11523C1.57227 2.09961 2.10938 1.57227 3.08594 1.57227L19.9414 1.57227C20.9082 1.57227 21.4551 2.09961 21.4551 3.11523L21.4551 14.873C21.4551 15.8887 20.9082 16.4062 19.9414 16.4062Z" fill="white"/>
 </g>
</svg>

<!--Generator: Apple Native CoreSVG 341-->
<!DOCTYPE svg  PUBLIC '-//W3C//DTD SVG 1.1//EN'  'http://www.w3.org/Graphics/SVG/1.1/DTD/svg11.dtd'>
<svg version="1.1" viewBox="0 0 23.389 17.978" xmlns="http://www.w3.org/2000/svg">
 <rect width="23.389" height="17.978" opacity="0"/>
 <path d="m0.44922 7.041h22.236v-1.5723h-22.236zm0 5.4785h22.236v-1.5722h-22.236zm10.283 5.0196h1.5723v-17.09h-1.5723zm-7.666 0.4394h16.894c2.0508 0 3.0664-1.0058 3.0664-3.0176v-11.934c0-2.0117-1.0156-3.0273-3.0664-3.0273h-16.894c-2.041 0-3.0664 1.0156-3.0664 3.0273v11.934c0 2.0118 1.0254 3.0176 3.0664 3.0176zm0.01953-1.5723c-0.97656 0-1.5137-0.5175-1.5137-1.5332v-11.758c0-1.0156 0.53711-1.543 1.5137-1.543h16.855c0.9668 0 1.5137 0.52734 1.5137 1.543v11.758c0 1.0157-0.5469 1.5332-1.5137 1.5332z" fill="#fff"/>
</svg>
